libs/common/icons/src/icons/MspSubscriptionSolid.svg

<svg width="24" height="24" viewBox="0 0 24 24" fill="none" xmlns="http://www.w3.org/2000/svg">
<path d="M11.1627 20.4C11.0186 20.4 10.8805 20.3427 10.7786 20.2409C10.6767 20.139 10.6195 20.0008 10.6195 19.8568V17.6851H5.88639C5.59835 17.6848 5.32219 17.5702 5.11851 17.3666C4.91484 17.1629 4.80028 16.8867 4.79999 16.5987V4.68638C4.79999 4.39824 4.91445 4.12191 5.11819 3.91817C5.32193 3.71444 5.59826 3.59998 5.88639 3.59998H17.7987C18.0866 3.60027 18.3625 3.71467 18.5662 3.91811C18.7698 4.12154 18.8845 4.39741 18.8851 4.68526V16.5987C18.8848 16.8867 18.7703 17.1629 18.5666 17.3666C18.3629 17.5702 18.0867 17.6848 17.7987 17.6851H15.9865V19.8557C15.9865 19.9526 15.9605 20.0477 15.9113 20.1312C15.862 20.2147 15.7913 20.2835 15.7066 20.3305C15.6218 20.3774 15.5259 20.4009 15.4291 20.3983C15.3322 20.3958 15.2377 20.3673 15.1555 20.316L13.303 19.159L11.4505 20.3171C11.3643 20.3712 11.2645 20.3999 11.1627 20.4ZM17.7998 4.68638H5.88639V16.5987H11.1616C11.3057 16.5987 11.4438 16.6559 11.5457 16.7578C11.6476 16.8597 11.7048 16.9978 11.7048 17.1419V18.8768L13.0141 18.0581C13.1004 18.0041 13.2001 17.9755 13.3019 17.9755C13.4037 17.9755 13.5034 18.0041 13.5897 18.0581L14.9001 18.8768V17.1419C14.9001 16.9978 14.9574 16.8597 15.0592 16.7578C15.1611 16.6559 15.2993 16.5987 15.4433 16.5987H17.7953L17.7998 4.68638Z" fill="currentColor"/>
<path fill-rule="evenodd" clip-rule="evenodd" d="M15.6233 10.4961C15.0155 9.87549 14.1862 9.52128 13.3176 9.51123C12.4489 9.52128 11.6196 9.87549 11.0118 10.4961C10.4039 11.1168 10.0671 11.9532 10.0752 12.822C10.0689 13.4997 10.2725 14.1577 10.6509 14.709C10.6283 14.7712 10.6168 14.8372 10.6172 14.9041V19.841C10.6169 19.9401 10.6428 20.0375 10.6924 20.1233C10.742 20.2091 10.8134 20.2802 10.8995 20.3294C10.98 20.3754 11.0711 20.3997 11.1638 20.3999C11.2666 20.3999 11.3673 20.3703 11.4539 20.3148L13.3164 19.1209L15.1801 20.3137C15.2623 20.3666 15.3575 20.396 15.4553 20.3985C15.553 20.4011 15.6496 20.3768 15.7345 20.3282C15.8205 20.2789 15.8919 20.2075 15.9412 20.1215C15.9906 20.0355 16.0163 19.938 16.0156 19.8388V14.9041C16.016 14.8381 16.0047 14.7729 15.9826 14.7114C16.362 14.1596 16.5663 13.5006 16.56 12.822C16.568 11.9532 16.2312 11.1168 15.6233 10.4961Z" fill="currentColor"/>
</svg>

<svg xmlns="http://www.w3.org/2000/svg" width="24" height="24" fill="none" viewBox="0 0 24 24">
  <path fill="currentColor" d="M11.163 20.4a.543.543 0 0 1-.543-.543v-2.172H5.886A1.088 1.088 0 0 1 4.8 16.6V4.686A1.086 1.086 0 0 1 5.886 3.6H17.8a1.088 1.088 0 0 1 1.086 1.085V16.6a1.088 1.088 0 0 1-1.086 1.086h-1.813v2.17a.543.543 0 0 1-.83.461l-1.853-1.157-1.853 1.158a.542.542 0 0 1-.287.083ZM17.8 4.686H5.886V16.6h5.276a.543.543 0 0 1 .543.543v1.735l1.31-.819a.542.542 0 0 1 .575 0l1.31.819v-1.735a.543.543 0 0 1 .543-.543h2.352L17.8 4.686Z"/>
  <path fill="currentColor" fill-rule="evenodd" d="M15.623 10.496a3.28 3.28 0 0 0-2.305-.985 3.28 3.28 0 0 0-3.243 3.311 3.28 3.28 0 0 0 .576 1.887.561.561 0 0 0-.034.195v4.937a.56.56 0 0 0 .282.488.535.535 0 0 0 .555-.014l1.862-1.194 1.864 1.193a.534.534 0 0 0 .555.014.559.559 0 0 0 .28-.49v-4.934a.56.56 0 0 0-.032-.193c.379-.551.583-1.21.577-1.889a3.28 3.28 0 0 0-.937-2.326Z" clip-rule="evenodd"/>
</svg>
